X:11069
T:Mon Anetto - Valse|Walzer/Waltz
N:CD transkription
Z:abc transcription Simon Wascher
N:please mail errors to simon.wascher@chello.at
M:3/4
L:1/4
K:G
DGA|B3|dd>c|B3|A3|
D^FG|A3|cB>A|G3:|
GFG|c3|ed>c|c3|B3|
BBB|B3|B>AG|A3||
DGA|B3|B>cd|d3|c3|
cBA|D3|A2G|B3|
DGA|B3|B>cd|d3|e3|
cBA|D3|AAB|G3|]
